X: 1
T: a Trip to the Cottage
R: jig
Z: 2009 John Chambers <jc:trillian.mit.edu>
S: printed MS of unknown origin
M: 6/8
L: 1/8
K: G
B/c/ \
| "G"ded ~B3 | "C"cBc "D7"AFD | "G"DGG "D7"FGA | "G"BAB "D7"ABc \
| "G"dgd "Em"~B3 | "Am"cBc "D7"AFD | "(G)"DFG "D7"FGA | "G"BGG G2 :|
|: d \
| "G"gfe ~d3 | "C"edc "G"Bcd | "Am"ecA "G"dBG | "Am"F{G}AG "D7"FED \
| "G"gfe ~d3 | "C"edc "G"Bcd | "C"efg "A7"eag |1 "D"fdd "D7"~d2 :|2 "D7"fef "G"g2 |]
